packages/core/src/svgs/tokens/branded/UFI.svg

<svg width="24" height="24" viewBox="0 0 24 24" fill="none" xmlns="http://www.w3.org/2000/svg">
<path d="M8.5926 2.59535L18.4909 13.406L6.70543 3.50144L6.22426 3.82639L18.1347 13.8246L4.63704 5.21989C4.50581 5.35736 4.38708 5.49484 4.26211 5.64482L17.8348 14.2934L3.09356 7.41951C3.00607 7.58198 2.93109 7.74446 2.84986 7.91942L17.5972 14.7932L2.19372 9.93779L2.09373 10.4878L17.4348 15.3244L2 12.6123L2.04998 13.181L17.3348 15.8805L2.51241 15.2306C2.57489 15.4181 2.64988 15.6119 2.72487 15.793L17.3099 16.4367L3.70595 17.624L4.08088 18.149L17.3599 16.9866L5.48689 19.6237C5.67436 19.7735 5.86182 19.9236 6.04929 20.0611L17.4848 17.5303L7.73649 21.0797C7.98645 21.1921 8.23641 21.2984 8.49886 21.392L17.6723 18.0552L10.3173 21.8857C10.6422 21.9357 10.9672 21.9732 11.2983 21.9983L17.9223 18.5488L13.048 21.9669C13.4855 21.9232 13.9103 21.842 14.3291 21.7482L18.2471 18.9987L15.7475 21.2921C16.4913 20.9922 17.1849 20.6047 17.8222 20.1486L18.6221 19.4112L18.3409 19.7486C19.8611 18.503 20.9801 16.8367 21.5581 14.9582C22.1361 13.0798 22.1473 11.0728 21.5903 9.1879L21.4654 12.0937L21.0966 7.85693C20.9093 7.432 20.6843 7.02583 20.4342 6.6384L20.9154 12.1374L19.3907 5.27613C19.1594 5.02617 18.9158 4.77621 18.6659 4.55126L20.3718 12.2624L17.1598 3.43895C16.9224 3.29523 16.6787 3.15775 16.4225 3.03277L19.8469 12.4499L14.5916 2.33914C14.354 2.27666 14.1167 2.22666 13.8791 2.17668L19.3532 12.7061L11.8607 2.00171C11.642 2.00171 11.4233 2.0142 11.2046 2.03296L18.9032 13.0311L9.16751 2.40789C8.97379 2.46412 8.78007 2.52662 8.5926 2.59535Z" fill="url(#paint0_linear_364_13896)"/>
<defs>
<linearGradient id="paint0_linear_364_13896" x1="20.5154" y1="17.7614" x2="3.69346" y2="6.02601" gradientUnits="userSpaceOnUse">
<stop stop-color="#7000FF"/>
<stop offset="0.49" stop-color="#00FFD1"/>
<stop offset="1" stop-color="#FFBF1C"/>
</linearGradient>
</defs>
</svg>

<svg xmlns="http://www.w3.org/2000/svg" width="24" height="24" fill="none" viewBox="0 0 24 24">
    <path fill="url(#UFI__a)" d="m8.593 2.595 9.898 10.811L6.705 3.501l-.48.325 11.91 9.999L4.637 5.22c-.131.137-.25.275-.375.425l13.573 8.648L3.094 7.42a8 8 0 0 0-.244.5l14.747 6.873L2.194 9.938l-.1.55 15.34 4.836L2 12.612l.05.569 15.285 2.7-14.823-.65c.063.187.138.38.213.562l14.585.644-13.604 1.187.375.525 13.279-1.162-11.873 2.637c.187.15.375.3.562.437l11.436-2.53-9.749 3.549c.25.112.5.218.763.312l9.173-3.337-7.355 3.83q.486.075.981.113l6.624-3.45-4.874 3.419c.438-.044.862-.125 1.281-.219l3.918-2.75-2.5 2.294a10 10 0 0 0 2.075-1.143l.8-.738-.281.338a9.99 9.99 0 0 0 3.25-10.561l-.126 2.906-.368-4.237a9 9 0 0 0-.663-1.219l.481 5.5-1.524-6.862c-.232-.25-.475-.5-.725-.725l1.706 7.711L17.16 3.44a9 9 0 0 0-.738-.406l3.425 9.417-5.255-10.11a15 15 0 0 0-.713-.163l5.474 10.53-7.492-10.705q-.329.001-.656.031l7.698 10.998L9.168 2.408a9 9 0 0 0-.575.187"/>
    <defs>
        <linearGradient id="UFI__a" x1="20.515" x2="3.693" y1="17.761" y2="6.026" gradientUnits="userSpaceOnUse">
            <stop stop-color="#7000FF"/>
            <stop offset=".49" stop-color="#00FFD1"/>
            <stop offset="1" stop-color="#FFBF1C"/>
        </linearGradient>
    </defs>
</svg>
